src/images/_svg/kubernetes.svg

<?xml version="1.0" encoding="UTF-8" standalone="no"?>
<svg width="256px" height="249px" viewBox="0 0 256 249" version="1.1" xmlns="http://www.w3.org/2000/svg" xmlns:xlink="http://www.w3.org/1999/xlink" preserveAspectRatio="xMidYMid">
	<g>
		<path d="M82.0851613,244.934194 C76.1393548,244.934194 70.523871,242.291613 66.7251613,237.501935 L8.91870968,165.656774 C5.12,160.867097 3.63354839,154.756129 5.12,148.810323 L25.7651613,59.1277419 C27.0864516,53.1819355 31.0503226,48.3922581 36.5006452,45.7496774 L120.072258,5.78064516 C122.714839,4.45935484 125.687742,3.79870968 128.660645,3.79870968 C131.633548,3.79870968 134.606452,4.45935484 137.249032,5.78064516 L220.820645,45.5845161 C226.270968,48.2270968 230.234839,53.0167742 231.556129,58.9625806 L252.20129,148.645161 C253.522581,154.590968 252.20129,160.701935 248.402581,165.491613 L190.596129,237.336774 C186.797419,241.96129 181.181935,244.769032 175.236129,244.769032 L82.0851613,244.934194 L82.0851613,244.934194 Z" fill="#326DE6"></path>
		<path d="M128.495484,7.92774194 C130.807742,7.92774194 133.12,8.42322581 135.267097,9.41419355 L218.83871,49.2180645 C223.132903,51.3651613 226.436129,55.3290323 227.427097,59.9535484 L248.072258,149.636129 C249.228387,154.425806 248.072258,159.380645 244.934194,163.179355 L187.127742,235.024516 C184.154839,238.823226 179.530323,240.970323 174.740645,240.970323 L82.0851613,240.970323 C77.2954839,240.970323 72.6709677,238.823226 69.6980645,235.024516 L11.8916129,163.179355 C8.91870968,159.380645 7.76258065,154.425806 8.75354839,149.636129 L29.3987097,59.9535484 C30.5548387,55.163871 33.6929032,51.2 37.9870968,49.2180645 L121.55871,9.24903226 C123.705806,8.42322581 126.183226,7.92774194 128.495484,7.92774194 L128.495484,7.92774194 Z M128.495484,0.16516129 L128.495484,0.16516129 C125.027097,0.16516129 121.55871,0.990967742 118.255484,2.47741935 L34.683871,42.4464516 C28.0774194,45.5845161 23.4529032,51.3651613 21.8012903,58.4670968 L1.15612903,148.149677 C-0.495483871,155.251613 1.15612903,162.51871 5.78064516,168.299355 L63.5870968,240.144516 C68.0464516,245.76 74.8180645,248.898065 81.92,248.898065 L174.575484,248.898065 C181.677419,248.898065 188.449032,245.76 192.908387,240.144516 L250.714839,168.299355 C255.339355,162.683871 256.990968,155.251613 255.339355,148.149677 L234.694194,58.4670968 C233.042581,51.3651613 228.418065,45.5845161 221.811613,42.4464516 L138.570323,2.47741935 C135.432258,0.990967742 131.963871,0.16516129 128.495484,0.16516129 L128.495484,0.16516129 L128.495484,0.16516129 Z" fill="#FFFFFF"></path>
		<path d="M212.232258,142.534194 L212.232258,142.534194 L212.232258,142.534194 C212.067097,142.534194 212.067097,142.534194 212.232258,142.534194 L212.067097,142.534194 C211.901935,142.534194 211.736774,142.534194 211.736774,142.369032 C211.406452,142.369032 211.076129,142.203871 210.745806,142.203871 C209.589677,142.03871 208.59871,141.873548 207.607742,141.873548 C207.112258,141.873548 206.616774,141.873548 205.956129,141.708387 L205.790968,141.708387 C202.322581,141.378065 199.514839,141.047742 196.872258,140.221935 C195.716129,139.726452 195.385806,139.065806 195.055484,138.405161 C195.055484,138.24 194.890323,138.24 194.890323,138.074839 L194.890323,138.074839 L192.743226,137.414194 C193.734194,129.816774 193.403871,121.889032 191.587097,114.126452 C189.770323,106.363871 186.632258,99.0967742 182.338065,92.4903226 L183.989677,91.003871 L183.989677,90.6735484 C183.989677,89.8477419 184.154839,89.0219355 184.815484,88.196129 C186.797419,86.3793548 189.274839,84.8929032 192.247742,83.076129 L192.247742,83.076129 C192.743226,82.7458065 193.23871,82.5806452 193.734194,82.2503226 C194.725161,81.7548387 195.550968,81.2593548 196.541935,80.5987097 C196.707097,80.4335484 197.037419,80.2683871 197.367742,79.9380645 C197.532903,79.7729032 197.698065,79.7729032 197.698065,79.6077419 L197.698065,79.6077419 C200.010323,77.6258065 200.505806,74.3225806 198.854194,72.1754839 C198.028387,71.0193548 196.541935,70.3587097 195.055484,70.3587097 C193.734194,70.3587097 192.578065,70.8541935 191.421935,71.68 L191.421935,71.68 L191.421935,71.68 C191.256774,71.8451613 191.256774,71.8451613 191.091613,72.0103226 C190.76129,72.1754839 190.596129,72.5058065 190.265806,72.6709677 C189.44,73.4967742 188.779355,74.1574194 188.11871,74.9832258 C187.788387,75.3135484 187.458065,75.8090323 186.962581,76.1393548 L186.962581,76.1393548 C184.650323,78.6167742 182.503226,80.5987097 180.356129,82.0851613 C179.860645,82.4154839 179.365161,82.5806452 178.869677,82.5806452 C178.539355,82.5806452 178.209032,82.5806452 177.87871,82.4154839 L177.548387,82.4154839 L177.548387,82.4154839 L175.566452,83.7367742 C173.419355,81.4245161 171.107097,79.4425806 168.794839,77.4606452 C158.885161,69.6980645 146.828387,64.9083871 134.276129,63.7522581 L134.110968,61.6051613 C133.945806,61.44 133.945806,61.44 133.780645,61.2748387 C133.285161,60.7793548 132.624516,60.283871 132.459355,59.1277419 C132.294194,56.4851613 132.624516,53.5122581 132.954839,50.2090323 L132.954839,50.043871 C132.954839,49.5483871 133.12,48.8877419 133.285161,48.3922581 C133.450323,47.4012903 133.615484,46.4103226 133.780645,45.2541935 L133.780645,44.2632258 L133.780645,43.7677419 L133.780645,43.7677419 L133.780645,43.7677419 C133.780645,40.7948387 131.468387,38.3174194 128.660645,38.3174194 C127.339355,38.3174194 126.018065,38.9780645 125.027097,39.9690323 C124.036129,40.96 123.540645,42.2812903 123.540645,43.7677419 L123.540645,43.7677419 L123.540645,43.7677419 L123.540645,44.0980645 L123.540645,45.0890323 C123.540645,46.2451613 123.705806,47.236129 124.036129,48.2270968 C124.20129,48.7225806 124.20129,49.2180645 124.366452,49.8787097 L124.366452,50.043871 C124.696774,53.3470968 125.192258,56.32 124.861935,58.9625806 C124.696774,60.1187097 124.036129,60.6141935 123.540645,61.1096774 C123.375484,61.2748387 123.375484,61.2748387 123.210323,61.44 L123.210323,61.44 L123.045161,63.5870968 C120.072258,63.9174194 117.099355,64.2477419 114.126452,64.9083871 C101.409032,67.716129 90.1780645,74.1574194 81.4245161,83.4064516 L79.7729032,82.2503226 L79.4425806,82.2503226 C79.1122581,82.2503226 78.7819355,82.4154839 78.4516129,82.4154839 C77.956129,82.4154839 77.4606452,82.2503226 76.9651613,81.92 C74.8180645,80.4335484 72.6709677,78.2864516 70.3587097,75.8090323 L70.3587097,75.8090323 C70.0283871,75.4787097 69.6980645,74.9832258 69.2025806,74.6529032 C68.5419355,73.8270968 67.8812903,73.1664516 67.0554839,72.3406452 C66.8903226,72.1754839 66.56,72.0103226 66.2296774,71.68 C66.0645161,71.5148387 65.8993548,71.5148387 65.8993548,71.3496774 L65.8993548,71.3496774 C64.9083871,70.523871 63.5870968,70.0283871 62.2658065,70.0283871 C60.7793548,70.0283871 59.2929032,70.6890323 58.4670968,71.8451613 C56.8154839,73.9922581 57.3109677,77.2954839 59.6232258,79.2774194 L59.6232258,79.2774194 L59.6232258,79.2774194 C59.7883871,79.2774194 59.7883871,79.4425806 59.9535484,79.4425806 C60.283871,79.6077419 60.4490323,79.9380645 60.7793548,80.1032258 C61.7703226,80.763871 62.596129,81.2593548 63.5870968,81.7548387 C64.0825806,81.92 64.5780645,82.2503226 65.0735484,82.5806452 L65.0735484,82.5806452 C68.0464516,84.3974194 70.523871,85.883871 72.5058065,87.7006452 C73.3316129,88.5264516 73.3316129,89.3522581 73.3316129,90.1780645 L73.3316129,90.5083871 L73.3316129,90.5083871 L74.9832258,91.9948387 C74.6529032,92.4903226 74.3225806,92.8206452 74.1574194,93.316129 C65.8993548,106.363871 62.7612903,121.723871 64.9083871,136.91871 L62.7612903,137.579355 C62.7612903,137.744516 62.596129,137.744516 62.596129,137.909677 C62.2658065,138.570323 61.7703226,139.230968 60.7793548,139.726452 C58.3019355,140.552258 55.3290323,140.882581 51.8606452,141.212903 L51.6954839,141.212903 C51.2,141.212903 50.5393548,141.212903 50.043871,141.378065 C49.0529032,141.378065 48.0619355,141.543226 46.9058065,141.708387 C46.5754839,141.708387 46.2451613,141.873548 45.9148387,141.873548 C45.7496774,141.873548 45.5845161,141.873548 45.4193548,142.03871 L45.4193548,142.03871 L45.4193548,142.03871 C42.4464516,142.699355 40.6296774,145.507097 41.1251613,148.149677 C41.6206452,150.461935 43.7677419,151.948387 46.4103226,151.948387 C46.9058065,151.948387 47.236129,151.948387 47.7316129,151.783226 L47.7316129,151.783226 L47.7316129,151.783226 C47.8967742,151.783226 48.0619355,151.783226 48.0619355,151.618065 C48.3922581,151.618065 48.7225806,151.452903 49.0529032,151.452903 C50.2090323,151.122581 51.0348387,150.792258 52.0258065,150.296774 C52.5212903,150.131613 53.0167742,149.80129 53.5122581,149.636129 L53.6774194,149.636129 C56.8154839,148.48 59.6232258,147.489032 62.2658065,147.15871 L62.596129,147.15871 C63.5870968,147.15871 64.2477419,147.654194 64.7432258,147.984516 C64.9083871,147.984516 64.9083871,148.149677 65.0735484,148.149677 L65.0735484,148.149677 L67.3858065,147.819355 C71.3496774,160.04129 78.9470968,170.941935 89.0219355,178.869677 C91.3341935,180.686452 93.6464516,182.172903 96.123871,183.659355 L95.1329032,185.806452 C95.1329032,185.971613 95.2980645,185.971613 95.2980645,186.136774 C95.6283871,186.797419 95.9587097,187.623226 95.6283871,188.779355 C94.6374194,191.256774 93.1509677,193.734194 91.3341935,196.541935 L91.3341935,196.707097 C91.003871,197.202581 90.6735484,197.532903 90.3432258,198.028387 C89.6825806,198.854194 89.1870968,199.68 88.5264516,200.670968 C88.3612903,200.836129 88.196129,201.166452 88.0309677,201.496774 C88.0309677,201.661935 87.8658065,201.827097 87.8658065,201.827097 L87.8658065,201.827097 L87.8658065,201.827097 C86.5445161,204.634839 87.5354839,207.772903 90.0129032,208.929032 C90.6735484,209.259355 91.3341935,209.424516 91.9948387,209.424516 C93.9767742,209.424516 95.9587097,208.103226 96.9496774,206.286452 L96.9496774,206.286452 L96.9496774,206.286452 C96.9496774,206.12129 97.1148387,205.956129 97.1148387,205.956129 C97.28,205.625806 97.4451613,205.295484 97.6103226,205.130323 C98.1058065,203.974194 98.2709677,203.148387 98.6012903,202.157419 C98.7664516,201.661935 98.9316129,201.166452 99.0967742,200.670968 L99.0967742,200.670968 C100.252903,197.367742 101.07871,194.725161 102.565161,192.412903 C103.225806,191.421935 104.051613,191.256774 104.712258,190.926452 C104.877419,190.926452 104.877419,190.926452 105.042581,190.76129 L105.042581,190.76129 L106.19871,188.614194 C113.465806,191.421935 121.393548,192.908387 129.32129,192.908387 C134.110968,192.908387 139.065806,192.412903 143.690323,191.256774 C146.663226,190.596129 149.470968,189.770323 152.27871,188.779355 L153.269677,190.596129 C153.434839,190.596129 153.434839,190.596129 153.6,190.76129 C154.425806,190.926452 155.086452,191.256774 155.747097,192.247742 C157.068387,194.56 158.059355,197.367742 159.215484,200.505806 L159.215484,200.670968 C159.380645,201.166452 159.545806,201.661935 159.710968,202.157419 C160.04129,203.148387 160.206452,204.139355 160.701935,205.130323 C160.867097,205.460645 161.032258,205.625806 161.197419,205.956129 C161.197419,206.12129 161.362581,206.286452 161.362581,206.286452 L161.362581,206.286452 L161.362581,206.286452 C162.353548,208.268387 164.335484,209.424516 166.317419,209.424516 C166.978065,209.424516 167.63871,209.259355 168.299355,208.929032 C169.455484,208.268387 170.446452,207.277419 170.776774,205.956129 C171.107097,204.634839 171.107097,203.148387 170.446452,201.827097 L170.446452,201.827097 L170.446452,201.827097 C170.446452,201.661935 170.28129,201.661935 170.28129,201.496774 C170.116129,201.166452 169.950968,200.836129 169.785806,200.670968 C169.290323,199.68 168.629677,198.854194 167.969032,198.028387 C167.63871,197.532903 167.308387,197.202581 166.978065,196.707097 L166.978065,196.541935 C165.16129,193.734194 163.509677,191.256774 162.683871,188.779355 C162.353548,187.623226 162.683871,186.962581 162.849032,186.136774 C162.849032,185.971613 163.014194,185.971613 163.014194,185.806452 L163.014194,185.806452 L162.188387,183.824516 C170.941935,178.704516 178.374194,171.437419 183.989677,162.51871 C186.962581,157.894194 189.274839,152.774194 190.926452,147.654194 L192.908387,147.984516 C193.073548,147.984516 193.073548,147.819355 193.23871,147.819355 C193.899355,147.489032 194.394839,146.993548 195.385806,146.993548 L195.716129,146.993548 C198.35871,147.323871 201.166452,148.314839 204.304516,149.470968 L204.469677,149.470968 C204.965161,149.636129 205.460645,149.966452 205.956129,150.131613 C206.947097,150.627097 207.772903,150.957419 208.929032,151.287742 C209.259355,151.287742 209.589677,151.452903 209.92,151.452903 C210.085161,151.452903 210.250323,151.452903 210.415484,151.618065 L210.415484,151.618065 C210.910968,151.783226 211.24129,151.783226 211.736774,151.783226 C214.214194,151.783226 216.36129,150.131613 217.021935,147.984516 C217.021935,146.002581 215.205161,143.36 212.232258,142.534194 L212.232258,142.534194 Z M135.762581,134.44129 L128.495484,137.909677 L121.228387,134.44129 L119.411613,126.67871 L124.366452,120.402581 L132.459355,120.402581 L137.414194,126.67871 L135.762581,134.44129 L135.762581,134.44129 Z M178.869677,117.264516 C180.190968,122.88 180.52129,128.495484 180.025806,133.945806 L154.756129,126.67871 C152.443871,126.018065 151.122581,123.705806 151.618065,121.393548 C151.783226,120.732903 152.113548,120.072258 152.609032,119.576774 L172.593548,101.574194 C175.40129,106.19871 177.548387,111.483871 178.869677,117.264516 L178.869677,117.264516 Z M164.665806,91.6645161 L143.029677,107.024516 C141.212903,108.180645 138.735484,107.850323 137.249032,106.033548 C136.753548,105.538065 136.588387,104.877419 136.423226,104.216774 L134.936774,77.2954839 C146.332903,78.6167742 156.738065,83.7367742 164.665806,91.6645161 L164.665806,91.6645161 Z M116.769032,78.1212903 C118.585806,77.7909677 120.237419,77.4606452 122.054194,77.1303226 L120.567742,103.556129 C120.402581,105.868387 118.585806,107.850323 116.108387,107.850323 C115.447742,107.850323 114.621935,107.685161 114.126452,107.354839 L92.16,91.6645161 C98.9316129,84.8929032 107.354839,80.2683871 116.769032,78.1212903 L116.769032,78.1212903 Z M84.2322581,101.574194 L103.886452,119.08129 C105.703226,120.567742 105.868387,123.375484 104.381935,125.192258 C103.886452,125.852903 103.225806,126.348387 102.4,126.513548 L76.8,133.945806 C75.8090323,122.714839 78.2864516,111.31871 84.2322581,101.574194 L84.2322581,101.574194 Z M79.7729032,146.332903 L106.033548,141.873548 C108.180645,141.708387 110.162581,143.194839 110.658065,145.341935 C110.823226,146.332903 110.823226,147.15871 110.492903,147.984516 L110.492903,147.984516 L100.418065,172.263226 C91.1690323,166.317419 83.7367742,157.233548 79.7729032,146.332903 L79.7729032,146.332903 Z M140.056774,179.2 C136.258065,180.025806 132.459355,180.52129 128.495484,180.52129 C122.714839,180.52129 117.099355,179.530323 111.814194,177.87871 L124.861935,154.260645 C126.183226,152.774194 128.330323,152.113548 130.147097,153.104516 C130.972903,153.6 131.633548,154.260645 132.129032,154.92129 L132.129032,154.92129 L144.846452,177.87871 C143.36,178.374194 141.708387,178.704516 140.056774,179.2 L140.056774,179.2 Z M172.263226,156.242581 C168.134194,162.849032 162.683871,168.134194 156.407742,172.263226 L146.002581,147.323871 C145.507097,145.341935 146.332903,143.194839 148.314839,142.203871 C148.975484,141.873548 149.80129,141.708387 150.627097,141.708387 L177.052903,146.167742 C176.061935,149.80129 174.410323,153.104516 172.263226,156.242581 L172.263226,156.242581 Z" fill="#FFFFFF"></path>
	</g>
</svg>

<svg viewBox="0 0 256 249" xmlns="http://www.w3.org/2000/svg" preserveAspectRatio="xMidYMid">
  <path d="M82.085 244.934c-5.946 0-11.561-2.642-15.36-7.432L8.92 165.657c-3.799-4.79-5.285-10.9-3.799-16.847l20.645-89.682c1.321-5.946 5.285-10.736 10.736-13.378l83.571-39.97c2.643-1.32 5.616-1.981 8.589-1.981 2.973 0 5.945.66 8.588 1.982l83.572 39.804c5.45 2.642 9.414 7.432 10.735 13.378l20.645 89.682c1.322 5.946 0 12.057-3.798 16.847l-57.807 71.845c-3.799 4.624-9.414 7.432-15.36 7.432l-93.15.165z" fill="#326DE6"/>
  <path d="M128.495 7.928c2.313 0 4.625.495 6.772 1.486l83.572 39.804c4.294 2.147 7.597 6.111 8.588 10.736l20.645 89.682c1.156 4.79 0 9.745-3.138 13.543l-57.806 71.846c-2.973 3.798-7.598 5.945-12.387 5.945H82.085c-4.79 0-9.414-2.147-12.387-5.945l-57.806-71.846c-2.973-3.798-4.13-8.753-3.138-13.543l20.645-89.682c1.156-4.79 4.294-8.754 8.588-10.736L121.56 9.25c2.147-.826 4.624-1.321 6.936-1.321zm0-7.763c-3.468 0-6.936.826-10.24 2.312l-83.571 39.97c-6.607 3.138-11.231 8.918-12.883 16.02L1.156 148.15c-1.651 7.102 0 14.369 4.625 20.15l57.806 71.845c4.46 5.615 11.231 8.753 18.333 8.753h92.655c7.102 0 13.874-3.138 18.333-8.753l57.807-71.846c4.624-5.615 6.276-13.047 4.624-20.15l-20.645-89.682c-1.651-7.102-6.276-12.882-12.882-16.02L138.57 2.476C135.432.991 131.964.165 128.495.165z" fill="#FFF"/>
  <path d="M212.232 142.534c-.165 0-.165 0 0 0h-.165c-.165 0-.33 0-.33-.165-.33 0-.66-.165-.991-.165-1.156-.165-2.147-.33-3.138-.33-.496 0-.991 0-1.652-.166h-.165c-3.468-.33-6.276-.66-8.919-1.486-1.156-.496-1.486-1.156-1.817-1.817 0-.165-.165-.165-.165-.33l-2.147-.66a65.33 65.33 0 0 0-1.156-23.289 68.054 68.054 0 0 0-9.249-21.636l1.652-1.486v-.33c0-.826.165-1.652.825-2.478 1.982-1.817 4.46-3.303 7.433-5.12.495-.33.99-.495 1.486-.826.991-.495 1.817-.99 2.808-1.651.165-.165.495-.33.826-.66.165-.166.33-.166.33-.331 2.312-1.982 2.808-5.285 1.156-7.433-.826-1.156-2.312-1.816-3.799-1.816-1.32 0-2.477.495-3.633 1.321l-.33.33c-.33.165-.496.496-.826.661-.826.826-1.487 1.486-2.147 2.312-.33.33-.66.826-1.156 1.156-2.313 2.478-4.46 4.46-6.607 5.946-.495.33-.99.496-1.486.496-.33 0-.661 0-.991-.166h-.33l-1.983 1.322c-2.147-2.312-4.459-4.294-6.771-6.276a65.958 65.958 0 0 0-34.519-13.709l-.165-2.147-.33-.33c-.496-.496-1.156-.991-1.322-2.147-.165-2.643.166-5.616.496-8.919v-.165c0-.496.165-1.156.33-1.652.165-.99.33-1.982.496-3.138v-1.486c0-2.973-2.313-5.45-5.12-5.45-1.322 0-2.643.66-3.634 1.651-.99.991-1.486 2.312-1.486 3.799v1.321c0 1.156.165 2.147.495 3.138.165.496.165.991.33 1.652v.165c.33 3.303.826 6.276.496 8.919-.165 1.156-.826 1.651-1.321 2.147l-.33.33-.166 2.147c-2.973.33-5.946.66-8.919 1.321-12.717 2.808-23.948 9.25-32.701 18.498l-1.652-1.156h-.33c-.33 0-.661.165-.991.165-.496 0-.991-.165-1.487-.495-2.147-1.486-4.294-3.634-6.606-6.111-.33-.33-.66-.826-1.156-1.156-.661-.826-1.322-1.487-2.148-2.312-.165-.166-.495-.33-.825-.661-.165-.165-.33-.165-.33-.33a5.772 5.772 0 0 0-3.634-1.322c-1.487 0-2.973.661-3.799 1.817-1.652 2.147-1.156 5.45 1.156 7.432.165 0 .165.166.33.166.33.165.496.495.826.66.991.66 1.817 1.156 2.808 1.652.496.165.991.495 1.487.826 2.972 1.816 5.45 3.303 7.432 5.12.826.825.826 1.651.826 2.477v.33l1.651 1.487c-.33.495-.66.826-.826 1.321-8.258 13.048-11.396 28.408-9.249 43.603l-2.147.66c0 .166-.165.166-.165.33-.33.661-.826 1.322-1.817 1.817-2.477.826-5.45 1.157-8.918 1.487h-.166c-.495 0-1.156 0-1.651.165-.991 0-1.982.165-3.138.33-.33 0-.66.166-.991.166-.165 0-.33 0-.496.165-2.973.66-4.79 3.468-4.294 6.11.496 2.313 2.643 3.8 5.285 3.8.496 0 .826 0 1.322-.166.165 0 .33 0 .33-.165.33 0 .66-.165.99-.165 1.157-.33 1.983-.66 2.974-1.156.495-.165.99-.496 1.486-.66h.165c3.138-1.157 5.946-2.148 8.589-2.478h.33c.991 0 1.652.495 2.147.826.165 0 .165.165.33.165l2.313-.33c3.964 12.221 11.561 23.122 21.636 31.05 2.312 1.816 4.624 3.303 7.102 4.79l-.991 2.146c0 .166.165.166.165.33.33.661.66 1.487.33 2.643-.99 2.478-2.477 4.955-4.294 7.763v.165c-.33.496-.66.826-.99 1.321-.661.826-1.157 1.652-1.818 2.643-.165.165-.33.495-.495.826 0 .165-.165.33-.165.33-1.321 2.808-.33 5.946 2.147 7.102.66.33 1.321.496 1.982.496 1.982 0 3.964-1.322 4.955-3.139 0-.165.165-.33.165-.33.165-.33.33-.66.495-.826.496-1.156.661-1.982.991-2.973l.496-1.486c1.156-3.303 1.982-5.946 3.468-8.258.66-.991 1.487-1.156 2.147-1.487.165 0 .165 0 .33-.165l1.157-2.147c7.267 2.808 15.195 4.294 23.122 4.294 4.79 0 9.745-.495 14.37-1.651a73.402 73.402 0 0 0 8.588-2.478l.99 1.817c.166 0 .166 0 .331.165.826.165 1.486.496 2.147 1.487 1.321 2.312 2.312 5.12 3.468 8.258v.165l.496 1.486c.33.991.495 1.982.99 2.973.166.33.331.496.496.826 0 .165.166.33.166.33.99 1.982 2.972 3.139 4.954 3.139.661 0 1.322-.166 1.982-.496 1.156-.66 2.147-1.652 2.478-2.973.33-1.321.33-2.808-.33-4.129 0-.165-.166-.165-.166-.33-.165-.33-.33-.66-.495-.826-.496-.991-1.156-1.817-1.817-2.643-.33-.495-.66-.825-.99-1.32v-.166c-1.818-2.808-3.47-5.285-4.295-7.763-.33-1.156 0-1.816.165-2.642 0-.165.165-.165.165-.33l-.826-1.982c8.754-5.12 16.186-12.388 21.802-21.306 2.973-4.625 5.285-9.745 6.936-14.865l1.982.33c.166 0 .166-.165.33-.165.661-.33 1.157-.825 2.148-.825h.33c2.643.33 5.45 1.32 8.589 2.477h.165c.495.165.99.495 1.486.66.991.496 1.817.826 2.973 1.157.33 0 .66.165.991.165.165 0 .33 0 .495.165.496.165.826.165 1.322.165 2.477 0 4.624-1.651 5.285-3.798 0-1.982-1.817-4.625-4.79-5.45zm-76.47-8.093l-7.267 3.469-7.267-3.469-1.816-7.762 4.954-6.276h8.093l4.955 6.276-1.651 7.762zm43.108-17.176a52.078 52.078 0 0 1 1.156 16.68l-25.27-7.266c-2.312-.66-3.633-2.973-3.138-5.285.165-.661.496-1.322.991-1.817l19.985-18.003c2.807 4.625 4.954 9.91 6.276 15.69zm-14.204-25.6l-21.636 15.36c-1.817 1.156-4.295.825-5.781-.991-.495-.496-.66-1.157-.826-1.817l-1.486-26.922a50.13 50.13 0 0 1 29.729 14.37zM116.769 78.12c1.817-.33 3.468-.66 5.285-.99l-1.486 26.425c-.165 2.312-1.982 4.294-4.46 4.294-.66 0-1.486-.165-1.982-.495L92.16 91.665c6.772-6.772 15.195-11.397 24.609-13.544zm-32.537 23.453l19.654 17.507c1.817 1.487 1.982 4.294.496 6.111-.496.66-1.156 1.156-1.982 1.322l-25.6 7.432c-.991-11.231 1.486-22.627 7.432-32.372zm-4.46 44.759l26.262-4.46c2.147-.165 4.129 1.322 4.624 3.469.165.99.165 1.817-.165 2.643l-10.075 24.278c-9.249-5.946-16.681-15.03-20.645-25.93zm60.285 32.867c-3.799.826-7.598 1.321-11.562 1.321-5.78 0-11.396-.99-16.68-2.642l13.047-23.618c1.321-1.487 3.468-2.147 5.285-1.156a7.04 7.04 0 0 1 1.982 1.816l12.717 22.958c-1.486.495-3.138.826-4.79 1.321zm32.206-22.957c-4.129 6.606-9.58 11.891-15.855 16.02l-10.405-24.94c-.496-1.981.33-4.128 2.312-5.12.66-.33 1.486-.495 2.312-.495l26.426 4.46c-.991 3.633-2.643 6.937-4.79 10.075z" fill="#FFF"/>
</svg>
